X:19126
T:Xota (MG 13)
T:Jota (MG 13)
R:Xota
C:Tradicional
S:Msica Tradicional Asturiana, (C) Tello & Tito. Asturies, 2001.
S:http://pagina.de/MusTradAst <telloytito@asturies.org>
O:Cangas del Narcea
A:Asturies
Z:Mtodu de Gaita 13
E:Nivel 2
M:3/8
L:1/8
Q:3/8=80
K:C
C
|: ~E2 D|CDE|F2 E|~D2 B,|~D2 C|B,CD|~E2 D|C2 C :|
|~E2 D|CDE|F2 E|~D2 B,|~D2 C|B,CD|~E2 D|C G/G/G/G/|
|c B/A/ G-|G A/A/A/A/|
|B A/G/ F-|F D/E/D/E/|F D/E/ F|FGG|~A G/F/ E-|E E/F/E/F/|G E/F/ G|GAA|
|B A/G/ F-|F D/E/D/E/|F D/E/ F|FGG|~A G/F/ E-|E G/A/G/F/|E G/A/G/F/|~EGG|
|B A/G/ F-|F F/G/F/E/|D F/G/F/E/|DGG|~A G/F/ E-|E G/A/G/F/|E G/A/G/F/|EGG|
|B A/G/ F-|F F/G/F/E/|D F/G/F/E/|DGG|GAB|c z G|c z C|
